.files/icons/devices/Wi-Fi.svg

<svg fill="none" height="48" viewBox="0 0 48 48" width="48" xmlns="http://www.w3.org/2000/svg"><g clip-rule="evenodd" fill="#000" fill-rule="evenodd"><path d="m42.8947 24.3351 4.1972-3.4836c-5.6632-6.8235-14.053-10.8515-23.095-10.8515-9.0293 0-17.40878 4.0168-23.072194 10.8241l4.193144 3.4885c4.63784-5.5746 11.48745-8.8581 18.87905-8.8581 7.4019 0 14.2601 3.2927 18.8978 8.8806zm-8.3708 6.9963 4.2084-3.4702c-3.6027-4.369-8.9608-6.9521-14.7354-6.9521-5.7556 0-11.0979 2.5661-14.70097 6.9106l4.19857 3.482c2.5775-3.108 6.3875-4.9381 10.5024-4.9381 4.1284 0 7.9498 1.8423 10.527 4.9678z" opacity=".3"/><path d="m30.2379 34.7091-4.1594 3.5286-2.1547 1.7624-2.0575-1.7029-4.2565-3.4108c1.5412-1.9234 3.8729-3.0682 6.3871-3.0682 2.4332 0 4.698 1.072 6.241 2.8909z"/></g></svg>

<svg width="48" height="48" viewBox="0 0 48 48" fill="none" xmlns="http://www.w3.org/2000/svg">
<path opacity="0.3" fill-rule="evenodd" clip-rule="evenodd" d="M42.8947 24.3351L47.0919 20.8515C41.4287 14.028 33.0389 10 23.9969 10C14.9676 10 6.58812 14.0168 0.924706 20.8241L5.11785 24.3126C9.75569 18.738 16.6053 15.4545 23.9969 15.4545C31.3988 15.4545 38.257 18.7472 42.8947 24.3351ZM34.5239 31.3314L38.7323 27.8612C35.1296 23.4922 29.7715 20.9091 23.9969 20.9091C18.2413 20.9091 12.899 23.4752 9.29593 27.8197L13.4945 31.3017C16.072 28.1937 19.882 26.3636 23.9969 26.3636C28.1253 26.3636 31.9467 28.2059 34.5239 31.3314Z" fill="black"/>
<path fill-rule="evenodd" clip-rule="evenodd" d="M30.2379 34.7091L26.0785 38.2377L23.9238 40.0001L21.8663 38.2972L17.6098 34.8864C19.151 32.963 21.4827 31.8182 23.9969 31.8182C26.4301 31.8182 28.6949 32.8902 30.2379 34.7091Z" fill="black"/>
</svg>
